X: 835
T: Gideceğim Gurbet Eldir
C: (Anonim)
O: Turkey
F: http://compmusic.upf.edu/node/140
N: muhayyer--turku--nimsofyan--gidecegim_gurbet--
N: makam= muhayyer
N: form= turku
N: usul= nimsofyan = 2/4
M: 2/4
L: 1/16
K: C _2/4B ^3/4f  
Q: 1/4=90
%%MIDI tuningsystem comma53
z2fg a2a2  | agba aga2  | agba a2a2  | agba aga2  | 
w:  Gi de ce ğim   |  gur *  bet  *  el *  dir    |  Gi *  de *  ce ğim   |  gur *  bet  *  el *  dir    | 
z2fg gg3  | gfag gff2  | fegf fee2  | ed=fe edd2  | 
w:  Ya  ge li nir   |  ya  *  ge *  lin *  mez    |  Her  *  gü *  ze *  le   |  me *  yil  *  ver *  me    | 
dced dcc2  | cBdc cB3  | BAcB BA3  | A8  | \
w:  Ya  *  se *  vi *  lir   |  ya  *  se *  vil mez    |  Gel  *  ey  *  gel  ey   |  vay    | 
z2cd d2d2  | 
w:  Her  gü ze le   | 
dced dcd2  | dced dcd2  | dced dcd2  | 
w:  me *  yil  *  ver *  me    |  Her  *  gü *  ze *  le   |  me *  yil  *  ver *  me    | 
z2fg gg3  | gfag gff2  | fegf fee2  | ed=fe edd2  | 
w:  Ya  se vi lir   |  ya  *  se *  vil *  mez    |  Gel  *  gül *  lüm  *  gel   |  gel  *  tel *  lim  *  gel    | 
dced dcc2  | cBdc cB3  | BAcB BA3  | A8  | |


